Adwaita++-Dark/actions/16/format-text-remove-formatting.svg

<svg height="16" width="16" xmlns="http://www.w3.org/2000/svg">
  <g fill="#e6ddff">
    <path d="m2.5 1 12.5 12.5-1.5 1.5-12.5-12.5z"/>
    <path d="m6.5 3 2 2h1.5c.43 0 1 .61 1 1v1h-.5l2.5 2.5v-3.5c0-1.63-1.32-3-3-3z"/>
    <path d="m6 7c-.92 0-1.74.3807-2.25.9707-.51.58-.75 1.3093-.75 2.0293s.2693 1.449.7793 2.029 1.3107.971 2.2207.971h7v-.5l-2-2v.5h-5c-.4 0-.5707-.109-.7207-.279s-.2793-.441-.2793-.721.1-.5507.25-.7207c.15-.16.33-.2793.75-.2793h3.5l-2-2z"/>
  </g>
</svg>

<svg xmlns="http://www.w3.org/2000/svg" width="16" height="16" version="1.1">
 <path style="fill:#E6DDFF" d="M 2.5,1 15,13.5 13.5,15 1,2.5 Z"/>
 <path style="fill:#E6DDFF" d="M 6.5,3 8.5,5 H 10 C 10.43,5 11,5.61 11,6 V 7 H 10.5 L 13,9.5 V 6 C 13,4.37 11.68,3 10,3 Z"/>
 <path style="fill:#E6DDFF" d="M 6,7 C 5.08,7 4.26,7.3807 3.75,7.9707 3.24,8.5507 3,9.28 3,10 3,10.72 3.2693,11.449 3.7793,12.029 4.2893,12.609 5.09,13 6,13 H 13 V 12.5 L 11,10.5 V 11 H 6 C 5.6,11 5.4293,10.891 5.2793,10.721 5.1293,10.551 5,10.28 5,10 5,9.72 5.1,9.4493 5.25,9.2793 5.4,9.1193 5.58,9 6,9 H 9.5 L 7.5,7 Z"/>
</svg>
